public/images/mail.svg

<?xml version="1.0" encoding="UTF-8" standalone="no"?><!DOCTYPE svg PUBLIC "-//W3C//DTD SVG 1.1//EN" "http://www.w3.org/Graphics/SVG/1.1/DTD/svg11.dtd"><svg width="100%" height="100%" viewBox="0 0 33 27" version="1.1" xmlns="http://www.w3.org/2000/svg" xmlns:xlink="http://www.w3.org/1999/xlink" xml:space="preserve" xmlns:serif="http://www.serif.com/" style="fill-rule:evenodd;clip-rule:evenodd;stroke-linejoin:round;stroke-miterlimit:1.41421;"><path d="M29.548,6.566l-13.132,8.208l-13.133,-8.208l0,-3.283l13.133,8.208l13.132,-8.208m0,-3.283l-26.265,0c-1.822,0 -3.283,1.461 -3.283,3.283l0,19.699c0,1.801 1.482,3.283 3.283,3.283l26.265,0c1.801,0 3.283,-1.482 3.283,-3.283l0,-19.699c0,-1.822 -1.477,-3.283 -3.283,-3.283Z" style="fill:#7e7e7e;fill-rule:nonzero;"/></svg>

<svg xmlns="http://www.w3.org/2000/svg" width="32.831" height="26.265" viewBox="0 0 32.831 26.265">
  <path id="mail" d="M29.548,6.566,16.416,14.774,3.283,6.566V3.283l13.133,8.208L29.548,3.283m0-3.283H3.283A3.272,3.272,0,0,0,0,3.283v19.7a3.3,3.3,0,0,0,3.283,3.283H29.548a3.3,3.3,0,0,0,3.283-3.283V3.283A3.282,3.282,0,0,0,29.548,0Z" fill="#8c00d4"/>
</svg>
